svg_80x80/HTML5.svg

<svg viewBox="0 0 80 80" xmlns="http://www.w3.org/2000/svg">
<rect width="100%" height="100%" fill="white"/>
<path d="M69.971 7L64.582 67.9705L40 75L15.418 67.9705L10.029 7H69.971ZM59.72 64.256L64.327 12.1H40V19.3845H21.028L23.1275 42.2155H40V54.1155L31.5425 51.948L30.9135 45.879H23.578L24.479 57.779L40 62.0545V69.9L59.72 64.256Z" fill="#E34F26"/>
<path d="M64.327 12.1L59.72 64.256L40 69.9V62.0545L55.2405 57.711L57.4165 34.693H40V26.941H58.088L58.7595 19.376H40V12.1H64.327Z" fill="#EF652A"/>
<path d="M58.7595 19.376L58.088 26.941H40V19.376H58.7595ZM57.4165 34.693L55.2405 57.711L40 62.0545V54.1155L48.245 51.829L49.18 42.2155H40V34.693H57.4165V34.693Z" fill="white"/>
<path d="M49.18 42.2155L48.245 51.829L40 54.1155V42.2155H49.18Z" fill="#E34F26"/>
<path d="M40 54.1155V62.0545L24.4705 57.745L23.578 45.879H30.9135L31.5425 51.948L40 54.1155ZM40 34.693V42.2155H23.1275L21.028 19.376H40V26.941H29.4175L30.089 34.693H40Z" fill="#EBEBEB"/>
<path d="M40 26.941V34.693H30.089L29.4175 26.941H40Z" fill="#E34F26"/>
</svg>

<svg xmlns="http://www.w3.org/2000/svg" viewBox="0 0 80 80">
  <rect width="100%" height="100%" fill="#fff"/>
  <path fill="#E34F26" d="m70 7-5.4 61L40 75l-24.6-7L10 7h60ZM59.7 64.3 64.3 12H40v7.3H21l2.1 22.8H40v12l-8.5-2.3-.6-6h-7.3l.9 11.9L40 62v7.8l19.7-5.6Z"/>
  <path fill="#EF652A" d="m64.3 12.1-4.6 52.2L40 69.9v-7.8l15.2-4.4 2.2-23H40v-7.8h18l.8-7.5H40V12h24.3Z"/>
  <path fill="#fff" d="m58.8 19.4-.7 7.5H40v-7.5h18.8Zm-1.4 15.3-2.2 23L40 62.1v-8l8.2-2.3 1-9.6H40v-7.5h17.4Z"/>
  <path fill="#E34F26" d="m49.2 42.2-1 9.6-8.2 2.3V42.2h9.2Z"/>
  <path fill="#EBEBEB" d="M40 54.1v8l-15.5-4.4-1-11.8H31l.6 6 8.5 2.2Zm0-19.4v7.5H23.1l-2-22.8H40v7.5H29.4l.7 7.8H40Z"/>
  <path fill="#E34F26" d="M40 27v7.7H30l-.6-7.8H40Z"/>
</svg>
